svg/badge_account_horizontal.svg

<svg xmlns="http://www.w3.org/2000/svg" viewBox="0 0 24 24"><path d="M22 4h-8v3h-4V4H2a2 2 0 0 0-2 2v14a2 2 0 0 0 2 2h20a2 2 0 0 0 2-2V6a2 2 0 0 0-2-2M8 9a2 2 0 0 1 2 2 2 2 0 0 1-2 2 2 2 0 0 1-2-2 2 2 0 0 1 2-2m4 8H4v-1c0-1.33 2.67-2 4-2s4 .67 4 2zm8 1h-6v-2h6zm0-4h-6v-2h6zm0-4h-6V8h6zm-7-4h-2V2h2z"/></svg>

<?xml version="1.0" encoding="UTF-8"?><!DOCTYPE svg PUBLIC "-//W3C//DTD SVG 1.1//EN" "http://www.w3.org/Graphics/SVG/1.1/DTD/svg11.dtd"><svg xmlns="http://www.w3.org/2000/svg" xmlns:xlink="http://www.w3.org/1999/xlink" version="1.1" id="mdi-badge-account-horizontal" width="24" height="24" viewBox="0 0 24 24"><path d="M22,4H14V7H10V4H2A2,2 0 0,0 0,6V20A2,2 0 0,0 2,22H22A2,2 0 0,0 24,20V6A2,2 0 0,0 22,4M8,9A2,2 0 0,1 10,11A2,2 0 0,1 8,13A2,2 0 0,1 6,11A2,2 0 0,1 8,9M12,17H4V16C4,14.67 6.67,14 8,14C9.33,14 12,14.67 12,16V17M20,18H14V16H20V18M20,14H14V12H20V14M20,10H14V8H20V10M13,6H11V2H13V6Z" /></svg>
